project/static/img/badges/RED face.svg

<?xml version="1.0" encoding="UTF-8" standalone="no"?>
<!DOCTYPE svg PUBLIC "-//W3C//DTD SVG 1.1//EN" "http://www.w3.org/Graphics/SVG/1.1/DTD/svg11.dtd">
<svg width="100%" height="100%" viewBox="0 0 128 128" version="1.1" xmlns="http://www.w3.org/2000/svg" xmlns:xlink="http://www.w3.org/1999/xlink" xml:space="preserve" xmlns:serif="http://www.serif.com/" style="fill-rule:evenodd;clip-rule:evenodd;stroke-linejoin:round;stroke-miterlimit:2;">
    <circle cx="82.77" cy="4.37" r="4.38" style="fill:rgb(195,146,46);"/>
    <circle cx="45.41" cy="6.38" r="4.38" style="fill:rgb(195,146,46);"/>
    <circle cx="115.2" cy="18.38" r="4.38" style="fill:rgb(195,146,46);"/>
    <circle cx="100.82" cy="10.76" r="4.38" style="fill:rgb(195,146,46);"/>
    <circle cx="63.53" cy="4.37" r="4.38" style="fill:rgb(195,146,46);"/>
    <path d="M103.39,72.18C103.71,45.55 86.21,37 76.44,33.8C55.33,30.03 41.44,38.63 32.64,59.11L45,6.68L51.67,26.5L63.53,5.37L68,21.64L83.49,4.37L86,24.46L100.5,12.1L98.68,34.5L115.2,19.5L103.39,72.18Z" style="fill:rgb(195,146,46);fill-rule:nonzero;"/>
    <rect x="39" y="53" width="46" height="64" style="fill:white;"/>
    <path d="M31.27,76.38C5.68,124.46 84,155.72 99,92.15C118,25.53 34.38,13 31.27,76.38ZM40.08,71.75C40.268,69.786 41.247,67.98 42.79,66.75C44.85,65.195 47.439,64.505 50,64.83C50.762,64.543 51.577,64.42 52.39,64.47C54.683,64.684 56.734,66.003 57.88,68C59.387,69.579 59.766,71.938 58.83,73.91C58.18,76.98 54.58,80.56 49.6,80.56C49.075,80.556 48.551,80.522 48.03,80.46C43.08,79.82 39.66,76.09 40.08,71.75ZM59.24,114.82C52.8,113.24 48.24,108.02 45.52,102.18C42.04,95.34 51.6,89.8 55.52,96.31C57.74,101.03 60.65,103.22 63.09,103.79C66.371,104.362 69.751,103.726 72.6,102C75.379,100.462 78.922,101.383 80.6,104.08C85.42,114.42 65.77,116.76 59.24,114.82ZM82.51,74.45C81.116,76.399 78.835,77.527 76.44,77.45C75.074,77.427 73.722,77.173 72.44,76.7C70.54,76.02 64.76,73.98 63.88,68.22C63.08,62.78 67.62,58.35 72.37,57.61C76.1,57.04 79.37,58.29 81.72,59.21C85.52,60.69 86.7,68.55 82.51,74.45Z" style="fill:rgb(235,32,39);fill-rule:nonzero;"/>
</svg>

<svg xmlns="http://www.w3.org/2000/svg" viewBox="0 0 128 128"><defs><style>.a{fill:#c3922e;}.b{fill:#eb2027;}</style></defs><circle class="a" cx="82.77" cy="4.37" r="4.38"/><circle class="a" cx="45.41" cy="6.38" r="4.38"/><circle class="a" cx="115.2" cy="18.38" r="4.38"/><circle class="a" cx="100.82" cy="10.76" r="4.38"/><circle class="a" cx="63.53" cy="4.37" r="4.38"/><path class="a" d="M103.39,72.18C103.71,45.55,86.21,37,76.44,33.8c-21.11-3.77-35,4.83-43.8,25.31L45,6.68,51.67,26.5,63.53,5.37,68,21.64,83.49,4.37,86,24.46l14.5-12.36L98.68,34.5l16.52-15Z"/><path class="b" d="M31.27,76.38C5.68,124.46,84,155.72,99,92.15,118,25.53,34.38,13,31.27,76.38Zm8.81-4.63a7.28,7.28,0,0,1,2.71-5A9.9,9.9,0,0,1,50,64.83a5.78,5.78,0,0,1,2.39-.36A7.09,7.09,0,0,1,57.88,68a5.28,5.28,0,0,1,.95,5.91c-.65,3.07-4.25,6.65-9.23,6.65a14.24,14.24,0,0,1-1.57-.1C43.08,79.82,39.66,76.09,40.08,71.75Zm19.16,43.07c-6.44-1.58-11-6.8-13.72-12.64-3.48-6.84,6.08-12.38,10-5.87,2.22,4.72,5.13,6.91,7.57,7.48A13.78,13.78,0,0,0,72.6,102a6,6,0,0,1,8,2.08C85.42,114.42,65.77,116.76,59.24,114.82ZM82.51,74.45a7.18,7.18,0,0,1-6.07,3,12.14,12.14,0,0,1-4-.75c-1.9-.68-7.68-2.72-8.56-8.48-.8-5.44,3.74-9.87,8.49-10.61,3.73-.57,7,.68,9.35,1.6C85.52,60.69,86.7,68.55,82.51,74.45Z"/></svg>
